static/images/bussines.svg

<svg height="101" viewBox="0 0 100 101" width="100" xmlns="http://www.w3.org/2000/svg" xmlns:xlink="http://www.w3.org/1999/xlink"><defs><circle id="a" cx="50.833333" cy="50.833333" r="35.833333"/><filter id="b" height="172.6%" width="172.6%" x="-36.3%" y="-30.7%"><feOffset dx="0" dy="4" in="SourceAlpha" result="shadowOffsetOuter1"/><feGaussianBlur in="shadowOffsetOuter1" result="shadowBlurOuter1" stdDeviation="8"/><feColorMatrix in="shadowBlurOuter1" type="matrix" values="0 0 0 0 0.254901961   0 0 0 0 0.458823529   0 0 0 0 0.647058824  0 0 0 0.24 0"/></filter><linearGradient id="c" x1="0%" x2="149.460671%" y1="0%" y2="71.875%"><stop offset="0" stop-color="#00eaf8"/><stop offset="1" stop-color="#6d42ef"/></linearGradient></defs><g fill="none" transform="translate(0 -3)"><use fill="#000" filter="url(#b)" xlink:href="#a"/><use fill="#fff" fill-rule="evenodd" xlink:href="#a"/><path d="m62.2960737 55.2018652h4.1933607c.2043467 0 .3893479.0828268.5232624.2167396.1339146.1339127.2167424.3189115.2167424.5232555v6.3898544c.0431538.7377638-.2309836 1.4593873-.7541823 1.982579-.5231987.5231918-1.2448316.7973256-1.9826052.7541724h-27.5691588c-.7457143.0636895-1.4824682-.2047429-2.0126628-.7349305s-.7986306-1.2669318-.7349402-2.0126363v-6.379039c0-.204344.0828278-.3893428.2167424-.5232555.1339145-.1339128.3189157-.2167396.5232624-.2167396h4.1933607v-12.8265811h-2.2200145c-.8839704 0-1.2333414.370194-1.2333414 1.1839921v8.4359438c0 .408688-.3313114.739995-.7400048.739995s-.7400048-.331307-.7400048-.739995v-8.4359438c0-1.6126267.9922179-2.6639822 2.713351-2.6639822h27.5981236c.7416906-.0531433 1.4706677.2182273 1.9972562.7448087.5265884.5265815.7979626 1.255549.7448185 1.9972298v8.3578875c0 .408688-.3313114.739995-.7400048.739995s-.7400048-.331307-.7400048-.739995v-8.3866108l.0026574-.062657c.0270844-.31872-.0878069-.6331571-.3139912-.8593384s-.5406256-.3410711-.9220076-.3113297h-2.2200145zm-1.4800097 0v-12.8265811h-20.2267989v12.8265811h2.7133511c.4086934 0 .7400048.3313071.7400048.7399951s-.3313114.7399951-.7400048.7399951h-2.7133511v3.6999753c0 .408688-.3313114.7399951-.7400048.7399951s-.7400049-.3313071-.7400049-.7399951v-3.6999753h-3.4533559v5.6732955l-.0037844.0747427c-.0321892.3170575.0798909.631785.3052398.857131.2253489.2253459.5400806.3374245.931886.3014514l27.6779474.0017664c.3203022.0221707.6345139-.0954329.8615437-.3224597.2270299-.2270268.344635-.5412344.322464-.8615324l-.0017664-.0510994v-5.6732955h-3.4533559v3.6999753c0 .408688-.3313115.7399951-.7400049.7399951s-.7400048-.3313071-.7400048-.7399951v-3.6999753h-2.7133511c-.4086934 0-.7400048-.3313071-.7400048-.7399951s.3313114-.7399951.7400048-.7399951zm-6.6600435 0c.4086933 0 .7400048.3313071.7400048.7399951s-.3313115.7399951-.7400048.7399951h-6.9067119c-.4086933 0-.7400048-.3313071-.7400048-.7399951s.3313115-.7399951.7400048-.7399951zm-2.468564-4.8862506c-.7078777.4086934-1.613033.1661641-2.021721-.5417042-.408688-.7078684-.1661468-1.6130205.5417309-2.0217139s1.613033-.1661642 2.021721.5417042.1661468 1.6130205-.5417309 2.0217139zm-6.574353-12.6177159c-.0051086.408656-.3405356.7357959-.749197.7306873-.4086615-.0051086-.7358057-.3405311-.730697-.7491872.0185674-1.4852607 1.2279547-2.6795148 2.7132932-2.6793988h9.8667312c1.4985424 0 2.7133511 1.2147926 2.7133511 2.7133152 0 .408688-.3313115.7399951-.7400049.7399951s-.7400048-.3313071-.7400048-.7399951c0-.6811466-.5521858-1.2333251-1.2333414-1.2333251h-9.866789c-.6751801-.0000527-1.2249016.5427901-1.2333414 1.2179086z" fill="url(#c)"/></g></svg>

<?xml version="1.0" encoding="UTF-8"?>
<svg width="100px" height="101px" viewBox="0 0 100 101" version="1.1" xmlns="http://www.w3.org/2000/svg" xmlns:xlink="http://www.w3.org/1999/xlink">
    <!-- Generator: Sketch 46.2 (44496) - http://www.bohemiancoding.com/sketch -->
    <title>ic/endpoint</title>
    <desc>Created with Sketch.</desc>
    <defs>
        <circle id="path-1" cx="50.8333333" cy="50.8333333" r="35.8333333"></circle>
        <filter x="-36.3%" y="-30.7%" width="172.6%" height="172.6%" filterUnits="objectBoundingBox" id="filter-2">
            <feOffset dx="0" dy="4" in="SourceAlpha" result="shadowOffsetOuter1"></feOffset>
            <feGaussianBlur stdDeviation="8" in="shadowOffsetOuter1" result="shadowBlurOuter1"></feGaussianBlur>
            <feColorMatrix values="0 0 0 0 0.254901961   0 0 0 0 0.458823529   0 0 0 0 0.647058824  0 0 0 0.24 0" type="matrix" in="shadowBlurOuter1"></feColorMatrix>
        </filter>
        <linearGradient x1="0%" y1="0%" x2="149.460671%" y2="71.875%" id="linearGradient-3">
            <stop stop-color="#00EAF8" offset="0%"></stop>
            <stop stop-color="#6D42EF" offset="100%"></stop>
        </linearGradient>
    </defs>
    <g id="Page-1" stroke="none" stroke-width="1" fill="none" fill-rule="evenodd">
        <g id="Rakam-UI-Screen-10/10/2017-event" transform="translate(-208.000000, -747.000000)" fill-rule="nonzero">
            <g id="Advanced-BI" transform="translate(148.000000, 744.000000)">
                <g id="icons">
                    <g id="1" transform="translate(19.000000, 0.000000)">
                        <g id="ic/bussines" transform="translate(41.000000, 0.000000)">
                            <g id="Oval">
                                <use fill="black" fill-opacity="1" filter="url(#filter-2)" xlink:href="#path-1"></use>
                                <use fill="#FFFFFF" fill-rule="evenodd" xlink:href="#path-1"></use>
                            </g>
                            <path d="M62.2960737,55.2018652 L66.4894344,55.2018652 C66.6937811,55.2018652 66.8787823,55.284692 67.0126968,55.4186048 C67.1466114,55.5525175 67.2294392,55.7375163 67.2294392,55.9418603 L67.2294392,62.3317147 C67.272593,63.0694785 66.9984556,63.791102 66.4752569,64.3142937 C65.9520582,64.8374855 65.2304253,65.1116193 64.4926517,65.0684661 L36.9234929,65.0684661 C36.1777786,65.1321556 35.4410247,64.8637232 34.9108301,64.3335356 C34.3806355,63.803348 34.1121995,63.0666038 34.1758899,62.3208993 L34.1758899,55.9418603 C34.1758899,55.7375163 34.2587177,55.5525175 34.3926323,55.4186048 C34.5265468,55.284692 34.711548,55.2018652 34.9158947,55.2018652 L39.1092554,55.2018652 L39.1092554,42.3752841 L36.8892409,42.3752841 C36.0052705,42.3752841 35.6558995,42.7454781 35.6558995,43.5592762 L35.6558995,51.99522 C35.6558995,52.403908 35.3245881,52.735215 34.9158947,52.735215 C34.5072013,52.735215 34.1758899,52.403908 34.1758899,51.99522 L34.1758899,43.5592762 C34.1758899,41.9466495 35.1681078,40.895294 36.8892409,40.895294 L64.4873645,40.895294 C65.2290551,40.8421507 65.9580322,41.1135213 66.4846207,41.6401027 C67.0112091,42.1666842 67.2825833,42.8956517 67.2294392,43.6373325 L67.2294392,51.99522 C67.2294392,52.403908 66.8981278,52.735215 66.4894344,52.735215 C66.080741,52.735215 65.7494296,52.403908 65.7494296,51.99522 L65.7494296,43.6086092 L65.752087,43.5459522 C65.7791714,43.2272322 65.6642801,42.9127951 65.4380958,42.6866138 C65.2119115,42.4604325 64.8974702,42.3455427 64.5160882,42.3752841 L62.2960737,42.3752841 L62.2960737,55.2018652 Z M60.816064,55.2018652 L60.816064,42.3752841 L40.5892651,42.3752841 L40.5892651,55.2018652 L43.3026162,55.2018652 C43.7113096,55.2018652 44.042621,55.5331723 44.042621,55.9418603 C44.042621,56.3505483 43.7113096,56.6818554 43.3026162,56.6818554 L40.5892651,56.6818554 L40.5892651,60.3818307 C40.5892651,60.7905187 40.2579537,61.1218258 39.8492603,61.1218258 C39.4405669,61.1218258 39.1092554,60.7905187 39.1092554,60.3818307 L39.1092554,56.6818554 L35.6558995,56.6818554 L35.6558995,62.3551509 L35.6521151,62.4298936 C35.6199259,62.7469511 35.732006,63.0616786 35.9573549,63.2870246 C36.1827038,63.5123705 36.4974355,63.6244491 36.8892409,63.588476 L64.5671883,63.5902424 C64.8874905,63.6124131 65.2017022,63.4948095 65.428732,63.2677827 C65.6557619,63.0407559 65.773367,62.7265483 65.751196,62.4062503 L65.7494296,62.3551509 L65.7494296,56.6818554 L62.2960737,56.6818554 L62.2960737,60.3818307 C62.2960737,60.7905187 61.9647622,61.1218258 61.5560688,61.1218258 C61.1473754,61.1218258 60.816064,60.7905187 60.816064,60.3818307 L60.816064,56.6818554 L58.1027129,56.6818554 C57.6940195,56.6818554 57.3627081,56.3505483 57.3627081,55.9418603 C57.3627081,55.5331723 57.6940195,55.2018652 58.1027129,55.2018652 L60.816064,55.2018652 Z M54.1560205,55.2018652 C54.5647138,55.2018652 54.8960253,55.5331723 54.8960253,55.9418603 C54.8960253,56.3505483 54.5647138,56.6818554 54.1560205,56.6818554 L47.2493086,56.6818554 C46.8406153,56.6818554 46.5093038,56.3505483 46.5093038,55.9418603 C46.5093038,55.5331723 46.8406153,55.2018652 47.2493086,55.2018652 L54.1560205,55.2018652 Z M51.6874565,50.3156146 C50.9795788,50.724308 50.0744235,50.4817787 49.6657355,49.7739104 C49.2570475,49.066042 49.4995887,48.1608899 50.2074664,47.7521965 C50.9153441,47.3435031 51.8204994,47.5860323 52.2291874,48.2939007 C52.6378754,49.0017691 52.3953342,49.9069212 51.6874565,50.3156146 Z M45.1131035,37.6978987 C45.1079949,38.1065547 44.7725679,38.4336946 44.3639065,38.428586 C43.955245,38.4234774 43.6281008,38.0880549 43.6332095,37.6793988 C43.6517769,36.1941381 44.8611642,34.999884 46.3465027,35 L56.2132339,35 C57.7117763,35 58.926585,36.2147926 58.926585,37.7133152 C58.926585,38.1220032 58.5952735,38.4533103 58.1865801,38.4533103 C57.7778867,38.4533103 57.4465753,38.1220032 57.4465753,37.7133152 C57.4465753,37.0321686 56.8943895,36.4799901 56.2132339,36.4799901 L46.3464449,36.4799901 C45.6712648,36.4799374 45.1215433,37.0227802 45.1131035,37.6978987 Z" id="Combined-Shape" fill="url(#linearGradient-3)"></path>
                        </g>
                    </g>
                </g>
            </g>
        </g>
    </g>
</svg>
